X:1
T:James Gibb editions
T:Quem pastores - Praetorius
%%score [ 1 2 3 4 ]
L:1/8
Q:1/4=130
M:3/4
K:Ab
V:1 treble nm="Soprano" snm="S"
V:2 treble nm="Alto" snm="A"
V:3 treble-8 nm="Tenor" snm="T"
V:4 bass nm="Bass" snm="B"
V:1
"^Quem pastores""^arr. Michael Praetorius\n(1571-1621)" A4 c2 | e4 c2 | (d2 e2) f2 | e2 B4 | %4
w: Quem pas-|to- res|lau\- * da-|ve- re,|
w: Ad quem|ma- gi|am\- * bu-|la- bant|
w: Chri- sto|Re- gi,|De\- * o|na- to|
 (c2 d2) e2 | (d2 c2) B2 | A4 F2 | G2 E4 | c4 d2 | e4 f2 | e4 B2 | c2 A4 | d4 d2 | (c2 B2) A2 | %14
w: Qui\- * bus|an\- * ge-|li dix-|e- re,|Ab- sit|vo- bis|iam ti-|me- re,|Na- tus|est * Rex|
w: Au\- * rum,|thus, * myr-|rham por-|ta- bant|Im- mo-|la- bant|haec sin-|ce- re|Le- o-|ni * vic-|
w: Per * Ma-|ri\- * a|no- bis|da- to|Me- ri-|to re-|so- net|ve- re|Laus, ho-|nor * et|
 (A2 F2) G2 | A6 |] %16
w: glo\- * ri-|ae.|
w: to\- * ri-|ae.|
w: glo\- * ri-|a.|
V:2
 E4 E2 | G4 E2 | (F2 A2) A2 | G2 G4 | A4 B2 | A4 E2 | E4 =D2 | E2 B,4 | C4 A2 | G4 B2 | %10
w: Quem pas-|to- res|lau\- * da-|ve- re,|Qui- bus|an- ge-|li dix-|e- re,|Ab- sit|vo- bis|
w: Ad quem|ma- gi|am\- * bu-|la- bant|Au- rum|thus, myr-|rham por-|ta- bant|Im- mo-|la- bant|
w: Chri- sto|Re- gi,|De\- * o|na- to|Per Ma-|ri- a|no- bis|da- to|Me- ri-|to re-|
 (G2 A2) G2 | A2 E4 | (B2 A2) B2 | (A2 G2) E2 | (E2 B,2) E2 | E6 |] %16
w: iam * ti-|me- re,|Na\- * tus|est * Rex|glo\- * ri-|ae.|
w: haec * sin-|ce- re|Le\- * o-|ni * vic-|to\- * ri-|ae.|
w: so\- * net|ve- re|Laus, * ho-|nor * et|glo\- * ri-|a.|
V:3
 c4 c2 | B4 A2 | A4 d2 | B2 e4 | (e2 f2) g2 | f4 B2 | c4 B2 | B2 G4 | e4 f2 | B4 d2 | (c2 e2) e2 | %11
w: Quem pas-|to- res|lau- da-|ve- re,|Qui\- * bus|an- ge-|li dix-|e- re,|Ab- sit|vo- bis|iam * ti-|
w: Ad quem|ma- gi|am- bu-|la- bant|Au\- * rum,|thus, myr-|rham por-|ta- bant|Im mo-|la- bant|haec * sin-|
w: Chri- sto|Re- gi,|De- o|na- to|Per * Ma-|ri- a|no- bis|da- to|Me- ri-|to re-|so\- * net|
 e2 c4 | f4 f2 | (c2 e2) c2 | (A2 B2) B2 | c6 |] %16
w: me- re,|Na- tus|est * Rex|glo\- * ri-|ae.|
w: ce- re|Le- o-|ni * vic-|to\- * ri-|ae.|
w: ve- re|Laus, ho-|nor * et|glo\- * ri-|a.|
V:4
 A,4 A,2 | E,4 A,,2 | (D,2 C,2) D,2 | E,2 E,4 | A,4 E,2 | F,4 G,2 | A,4 B,2 | E,2 E,4 | A,4 F,2 | %9
w: Quem pas-|to- res|lau\- * da-|ve- re,|Qui- bus|an- ge-|li dix-|e- re,|Ab- sit|
w: Ad quem|ma- gi|am\- * bu-|la- bant|Au- rum,|thus, myr-|rham por-|ta- bant|Im mo-|
w: Chri- sto|Re- gi,|De\- * o|na- to|Per Ma-|ri- a|no- bis|da- to|Me- ri-|
 E,4 B,,2 | C,4 E,2 | [A,,A,]2 [A,,A,]4 | (B,,C, D,2) B,,2 | (F,2 G,2) A,2 | (C,2 D,2) E,2 | %15
w: vo- bis|iam ti-|me- re,|Na\- * * tus|est * Rex|glo\- * ri-|
w: la- bant|haec sin-|ce- re|Le\- * * o-|ni * vic-|to\- * ri-|
w: to re-|so- net|ve- re|Laus, * * ho-|nor * et|glo\- * ri-|
 [A,,A,]6 |] %16
w: ae.|
w: ae.|
w: a.|

